X:14936
T:Schai(n staad-Bauernmenuett
B: "Alt-Egerlnder Tnze", E.Baumann
N: source 2. part in D
P:Nrdliches Egerland, um 1860
Z:abc transcription Simon Wascher
N:please mail errors to simon.wascher@chello.at
M:3/4
L:1/4
K:G
B3|d3|c>cc|e>ee|
A3|c3|B>BB|d>dd|
G3|B3|A>AA|c>cc|
F3|A3|G3|G2z"Fine":|
|:D>GB|G>Bd|d3|c3|
D>FA|F>Ac|e3|d3|
D>GB|G>Bd|d3|c3|
E3|F3|G3|G3:|
